assets/img/logos/cdtv.svg

<?xml version="1.0" encoding="utf-8"?>
<!-- Generator: Adobe Illustrator 26.0.1, SVG Export Plug-In . SVG Version: 6.00 Build 0)  -->
<svg version="1.1" id="Layer_1" xmlns="http://www.w3.org/2000/svg" xmlns:xlink="http://www.w3.org/1999/xlink" x="0px" y="0px"
	 viewBox="0 0 3839 1750.3" style="enable-background:new 0 0 3839 1750.3;" xml:space="preserve">
<style type="text/css">
	.st0{fill:#001E68;}
	.st1{fill:#FF001F;}
	.st2{fill:#FFFFFF;}
</style>
<g>
	<g>
		<g>
			<path class="st0" d="M2378.3,436.9c-353.4-418.3-872.2-561.1-1158.6-319.1S987.6,895.1,1341,1313.4s872.2,561.1,1158.6,319.1
				C2786,1390.4,2731.7,855.2,2378.3,436.9z M2492.3,1576.6c-264.1,223.2-752.5,79.6-1090.8-320.7s-398.4-905.8-134.2-1129
				s752.5-79.6,1090.8,320.7C2696.4,848,2756.5,1353.4,2492.3,1576.6z"/>
			<g>
				<polygon class="st1" points="3019.8,283.1 2788.4,283.1 2788.4,283.1 2627.7,283.1 2627.7,514.5 2788.4,514.5 2788.4,1200.3 
					3019.8,1200.3 3019.8,514.5 3180.6,514.5 3180.6,283.1 3019.8,283.1 				"/>
				<path class="st1" d="M2401.2,283.1h-350.7v917.2h350.7c111.7,0,202.2-90.5,202.2-202.2V485.3
					C2603.4,373.6,2512.9,283.1,2401.2,283.1z M2372,968.9h-90V514.6h90V968.9z"/>
				<path class="st1" d="M1804.3,283.1h-249c-83.9,0-152,68.1-152,152v613.3c0,83.9,68,152,152,152h249c83.9,0,152-68,152-152v-191
					h-231.4v111.4h-90V514.6h90V626h231.4V435.1C1956.3,351.2,1888.3,283.1,1804.3,283.1z"/>
				<polygon class="st1" points="3604,283.1 3529.3,920.2 3454.7,283.1 3219.7,283.1 3381.4,1200.3 3677.3,1200.3 3839,283.1 				
					"/>
			</g>
		</g>
		<g>
			<path class="st0" d="M215.5,741.7c0-134.1,109.1-243.1,243.1-243.1c43,0,83.5,11.3,118.6,31V298.7
				c-37.8-10.1-77.6-15.6-118.6-15.6C205.3,283.1,0,488.5,0,741.7s205.3,458.6,458.6,458.6c41,0,80.7-5.5,118.6-15.6V953.9
				c-35.1,19.7-75.5,31-118.6,31C324.5,984.9,215.5,875.8,215.5,741.7z"/>
			<polygon class="st0" points="577.2,725 793.4,725 976.8,541.6 577.2,541.6 			"/>
			<polygon class="st1" points="577.2,758.4 577.2,941.9 976.8,941.9 793.4,758.4 			"/>
		</g>
	</g>
</g>
</svg>

<?xml version="1.0" encoding="utf-8"?>
<svg version="1.1" id="Layer_1" viewBox="0 0 3839 1750.3" xmlns="http://www.w3.org/2000/svg">
  <path class="st0" d="M 2378.3 436.9 C 2024.9 18.6 1506.1 -124.2 1219.7 117.8 C 933.3 359.8 987.6 895.1 1341 1313.4 C 1694.4 1731.7 2213.2 1874.5 2499.6 1632.5 C 2786 1390.4 2731.7 855.2 2378.3 436.9 Z M 2492.3 1576.6 C 2228.2 1799.8 1739.8 1656.2 1401.5 1255.9 C 1063.2 855.6 1003.1 350.1 1267.3 126.9 C 1531.5 -96.3 2019.8 47.3 2358.1 447.6 C 2696.4 848 2756.5 1353.4 2492.3 1576.6 Z" style="fill: rgb(255, 255, 255);"/>
  <polygon class="st0" points="3019.8 283.1 2788.4 283.1 2788.4 283.1 2627.7 283.1 2627.7 514.5 2788.4 514.5 2788.4 1200.3 3019.8 1200.3 3019.8 514.5 3180.6 514.5 3180.6 283.1 3019.8 283.1" style="fill: rgb(255, 255, 255);"/>
  <path class="st0" d="M 2401.2 283.1 L 2050.5 283.1 L 2050.5 1200.3 L 2401.2 1200.3 C 2512.9 1200.3 2603.4 1109.8 2603.4 998.1 L 2603.4 485.3 C 2603.4 373.6 2512.9 283.1 2401.2 283.1 Z M 2372 968.9 L 2282 968.9 L 2282 514.6 L 2372 514.6 L 2372 968.9 Z" style="fill: rgb(255, 255, 255);"/>
  <path class="st0" d="M 1804.3 283.1 L 1555.3 283.1 C 1471.4 283.1 1403.3 351.2 1403.3 435.1 L 1403.3 1048.4 C 1403.3 1132.3 1471.3 1200.4 1555.3 1200.4 L 1804.3 1200.4 C 1888.2 1200.4 1956.3 1132.4 1956.3 1048.4 L 1956.3 857.4 L 1724.9 857.4 L 1724.9 968.8 L 1634.9 968.8 L 1634.9 514.6 L 1724.9 514.6 L 1724.9 626 L 1956.3 626 L 1956.3 435.1 C 1956.3 351.2 1888.3 283.1 1804.3 283.1 Z" style="fill: rgb(255, 255, 255);"/>
  <polygon class="st0" points="3604 283.1 3529.3 920.2 3454.7 283.1 3219.7 283.1 3381.4 1200.3 3677.3 1200.3 3839 283.1" style="fill: rgb(255, 255, 255);"/>
  <path class="st0" d="M 215.5 741.7 C 215.5 607.6 324.6 498.6 458.6 498.6 C 501.6 498.6 542.1 509.9 577.2 529.6 L 577.2 298.7 C 539.4 288.6 499.6 283.1 458.6 283.1 C 205.3 283.1 0 488.5 0 741.7 C 0 994.9 205.3 1200.3 458.6 1200.3 C 499.6 1200.3 539.3 1194.8 577.2 1184.7 L 577.2 953.9 C 542.1 973.6 501.7 984.9 458.6 984.9 C 324.5 984.9 215.5 875.8 215.5 741.7 Z" style="fill: rgb(255, 255, 255);"/>
  <polygon class="st0" points="577.2 725 793.4 725 976.8 541.6 577.2 541.6" style="fill: rgb(255, 255, 255);"/>
  <polygon class="st0" points="577.2 758.4 577.2 941.9 976.8 941.9 793.4 758.4" style="fill: rgb(255, 255, 255);"/>
</svg>
